X:98
%%etbk:tnset id:34,pos:2,rep:3x,ant:
%%etbk:wsite http://www.thesession.org/tunes/display/3
%%etbk:color #ffccbf
%%etbk:pldat 2016-04-21T18:47,2014-12-06T16:28,2014-02-04T18:46,2013-11-17T16:08,2013-11-13T16:20
T: Boil The Breakfast Early
Z: Piano Box Version by Martin Fleischmann
H: Created 2013-02-19 /  Last Modified 2016-04-21
M: 4/4
L: 1/8
R: reel
K: Dmix
| "G"!2!G3!4!B !3!A!1!DDD | !2!G!4!B!3!B!4!B !5!c2!4!BA | !2!G3!4!B !3!A!1!DDD | "C"!3!G!1!E !3!(3E!2!E!1!E  !5!c!3!A!4!B!3!A |
"G"!2!G3!4!B !3!A!1!DDD | !2!G!4!B!3!B!4!B !5!c2!3!B!4!c | !5!d!3!B!4!c!2!A !3!B!1!G!4!A!2!F | "C"!3!G!1!E !3!(3E!2!E!1!E !5!c2 !1!Bc||
"D"!3!d2!5!f!3!d !4!ed!1!B!2!^c | !3!d2!4!e!3!f !4!g2fe | "D"!1!d!3!d!5!f!3!d !4!e!3!d!2!B!1!A | "C"!3!G!1!E !3!(3E!2!E!1!E !5!c2 !1!B!2!c |
"D"!3!d2!5!f!3!d !4!ed!1!B!2!^c | !3!d2!4!e!3!f !4!g2 fg | !5!af!4!ge !3!fd!2!e!1!d | !3!dc!1!AB !3!c2 !2!Bc||
"D"!4!d!1!A!2!A!1!A !4!d!1!A!2!F!1!A | !4!d!1!A!2!A!1!A !3!def!4!e | !3!d!1!A!2!A!1!A !4!d!1!A!2!F!4!A | "C"!3!G!1!E !3!(3E!2!E!1!E !5!c2 !2!B!3!c |
"D"!4!d!1!A!2!A!1!A !4!d!1!A!2!F!1!A | !4!d2!3!d^c !3!defe | !3!d!1!B!4!c!2!A !3!B!1!G!4!A!2!F | "C"!2!G!1!E !3!(3E!2!E!1!E !5!c2BA ||


